Catalina-light/status/24/indicator-messages.svg

<?xml version="1.0" encoding="UTF-8" standalone="no"?>
<!-- Created with Inkscape (http://www.inkscape.org/) -->

<svg
   xmlns:osb="http://www.openswatchbook.org/uri/2009/osb"
   xmlns:dc="http://purl.org/dc/elements/1.1/"
   xmlns:cc="http://creativecommons.org/ns#"
   xmlns:rdf="http://www.w3.org/1999/02/22-rdf-syntax-ns#"
   xmlns:svg="http://www.w3.org/2000/svg"
   xmlns="http://www.w3.org/2000/svg"
   xmlns:sodipodi="http://sodipodi.sourceforge.net/DTD/sodipodi-0.dtd"
   xmlns:inkscape="http://www.inkscape.org/namespaces/inkscape"
   version="1.0"
   width="24"
   height="24"
   id="svg3197"
   inkscape:version="0.91 r13725"
   sodipodi:docname="indicator-messages.svg">
  <sodipodi:namedview
     pagecolor="#ffffff"
     bordercolor="#666666"
     borderopacity="1"
     objecttolerance="10"
     gridtolerance="10"
     guidetolerance="10"
     inkscape:pageopacity="0"
     inkscape:pageshadow="2"
     inkscape:window-width="1366"
     inkscape:window-height="633"
     id="namedview7"
     showgrid="false"
     inkscape:zoom="9.8333333"
     inkscape:cx="-49.419639"
     inkscape:cy="13.118644"
     inkscape:window-x="0"
     inkscape:window-y="33"
     inkscape:window-maximized="1"
     inkscape:current-layer="svg3197" />
  <metadata
     id="metadata12">
    <rdf:RDF>
      <cc:Work
         rdf:about="">
        <dc:format>image/svg+xml</dc:format>
        <dc:type
           rdf:resource="http://purl.org/dc/dcmitype/StillImage" />
        <dc:title />
      </cc:Work>
    </rdf:RDF>
  </metadata>
  <defs
     id="defs3199">
    <linearGradient
       id="linearGradient4179-7">
      <stop
         offset="0"
         style="stop-color:#e8d800;stop-opacity:1"
         id="stop4181-2" />
      <stop
         offset="1"
         style="stop-color:#feff68;stop-opacity:1"
         id="stop4183-1" />
    </linearGradient>
    <linearGradient
       id="linearGradient8311-06">
      <stop
         id="stop8313-6"
         style="stop-color:#a9a3d4;stop-opacity:1"
         offset="0" />
      <stop
         offset="0.47001833"
         style="stop-color:#87baff;stop-opacity:1"
         id="stop4462" />
      <stop
         id="stop8315-2"
         style="stop-color:#89ec85;stop-opacity:1"
         offset="1" />
    </linearGradient>
    <linearGradient
       id="linearGradient4207"
       osb:paint="gradient">
      <stop
         style="stop-color:#3498db;stop-opacity:1;"
         offset="0"
         id="stop3371" />
      <stop
         style="stop-color:#3498db;stop-opacity:0;"
         offset="1"
         id="stop3373" />
    </linearGradient>
    <linearGradient
       id="linearGradient4422">
      <stop
         id="stop4424"
         offset="0"
         style="stop-color:#ff9300;stop-opacity:1" />
      <stop
         id="stop4426"
         offset="1"
         style="stop-color:#ffd702;stop-opacity:1" />
    </linearGradient>
    <inkscape:perspective
       id="perspective4146"
       inkscape:persp3d-origin="12 : 8 : 1"
       inkscape:vp_z="24 : 12 : 1"
       inkscape:vp_y="0 : 1000 : 0"
       inkscape:vp_x="0 : 12 : 1"
       sodipodi:type="inkscape:persp3d" />
    <inkscape:perspective
       id="perspective4090"
       inkscape:persp3d-origin="12 : 8 : 1"
       inkscape:vp_z="24 : 12 : 1"
       inkscape:vp_y="0 : 1000 : 0"
       inkscape:vp_x="0 : 12 : 1"
       sodipodi:type="inkscape:persp3d" />
    <clipPath
       id="clipPath16"
       clipPathUnits="userSpaceOnUse">
      <path
         inkscape:connector-curvature="0"
         id="path18"
         d="m 0,706.465 1490.926,0 L 1490.926,0 0,0 0,706.465 Z" />
    </clipPath>
    <clipPath
       id="clipPath24"
       clipPathUnits="userSpaceOnUse">
      <path
         inkscape:connector-curvature="0"
         id="path26"
         d="m 22.1953,686.117 1447.7347,0 0,-667.1902 -1447.7347,0 0,667.1902 z" />
    </clipPath>
    <clipPath
       id="clipPath4534"
       clipPathUnits="userSpaceOnUse">
      <rect
         style="fill:url(#linearGradient4538);fill-opacity:1;stroke:none"
         id="rect4536"
         width="31.999989"
         height="31.999971"
         x="8.0000114"
         y="8.0000038"
         ry="15.999986" />
    </clipPath>
    <clipPath
       id="clipPath4584"
       clipPathUnits="userSpaceOnUse">
      <rect
         style="fill:url(#linearGradient4588);fill-opacity:1;stroke:none"
         id="rect4586"
         width="31.999989"
         height="31.999971"
         x="392.57144"
         y="507.798"
         ry="15.999986" />
    </clipPath>
    <clipPath
       id="clipPath4550"
       clipPathUnits="userSpaceOnUse">
      <rect
         style="fill:url(#linearGradient4554);fill-opacity:1;stroke:none"
         id="rect4552"
         width="31.999989"
         height="31.999971"
         x="392.57144"
         y="507.798"
         ry="15.999986" />
    </clipPath>
    <clipPath
       id="clipPath4568"
       clipPathUnits="userSpaceOnUse">
      <rect
         style="fill:url(#linearGradient4572);fill-opacity:1;stroke:none"
         id="rect4570"
         width="31.999989"
         height="31.999971"
         x="392.57144"
         y="507.798"
         ry="15.999986" />
    </clipPath>
    <clipPath
       id="clipPath4528"
       clipPathUnits="userSpaceOnUse">
      <rect
         style="fill:url(#linearGradient4532);fill-opacity:1;stroke:none"
         id="rect4530"
         width="31.999989"
         height="31.999971"
         x="8.0000114"
         y="8.0000038"
         ry="15.999986" />
    </clipPath>
    <clipPath
       id="clipPath4578"
       clipPathUnits="userSpaceOnUse">
      <rect
         style="fill:url(#linearGradient4582);fill-opacity:1;stroke:none"
         id="rect4580"
         width="31.999989"
         height="31.999971"
         x="392.57144"
         y="507.798"
         ry="15.999986" />
    </clipPath>
    <clipPath
       id="clipPath4562"
       clipPathUnits="userSpaceOnUse">
      <rect
         style="fill:url(#linearGradient4566);fill-opacity:1;stroke:none"
         id="rect4564"
         width="31.999989"
         height="31.999971"
         x="392.57144"
         y="507.798"
         ry="15.999986" />
    </clipPath>
    <clipPath
       id="clipPath4544"
       clipPathUnits="userSpaceOnUse">
      <rect
         style="fill:url(#linearGradient4548);fill-opacity:1;stroke:none"
         id="rect4546"
         width="31.999989"
         height="31.999971"
         x="392.57144"
         y="507.798"
         ry="15.999986" />
    </clipPath>
    <clipPath
       id="clipPath4390"
       clipPathUnits="userSpaceOnUse">
      <rect
         style="fill:url(#linearGradient4532);fill-opacity:1;stroke:none"
         id="rect4392"
         width="31.999989"
         height="31.999971"
         x="8.0000114"
         y="8.0000038"
         ry="15.999986" />
    </clipPath>
    <clipPath
       id="clipPath4407"
       clipPathUnits="userSpaceOnUse">
      <rect
         style="fill:url(#linearGradient4582);fill-opacity:1;stroke:none"
         id="rect4409"
         width="31.999989"
         height="31.999971"
         x="392.57144"
         y="507.798"
         ry="15.999986" />
    </clipPath>
    <clipPath
       id="clipPath4424"
       clipPathUnits="userSpaceOnUse">
      <rect
         style="fill:url(#linearGradient4566);fill-opacity:1;stroke:none"
         id="rect4426"
         width="31.999989"
         height="31.999971"
         x="392.57144"
         y="507.798"
         ry="15.999986" />
    </clipPath>
    <clipPath
       id="clipPath4441"
       clipPathUnits="userSpaceOnUse">
      <rect
         style="fill:url(#linearGradient4548);fill-opacity:1;stroke:none"
         id="rect4443"
         width="31.999989"
         height="31.999971"
         x="392.57144"
         y="507.798"
         ry="15.999986" />
    </clipPath>
    <clipPath
       clipPathUnits="userSpaceOnUse"
       id="clipPath4528-1">
      <rect
         ry="15.999986"
         y="8.0000038"
         x="8.0000114"
         height="31.999971"
         width="31.999989"
         id="rect4530-7"
         style="fill:url(#linearGradient4532);fill-opacity:1;stroke:none" />
    </clipPath>
    <clipPath
       clipPathUnits="userSpaceOnUse"
       id="clipPath4578-8">
      <rect
         ry="15.999986"
         y="507.798"
         x="392.57144"
         height="31.999971"
         width="31.999989"
         id="rect4580-7"
         style="fill:url(#linearGradient4582);fill-opacity:1;stroke:none" />
    </clipPath>
    <clipPath
       clipPathUnits="userSpaceOnUse"
       id="clipPath4562-8">
      <rect
         ry="15.999986"
         y="507.798"
         x="392.57144"
         height="31.999971"
         width="31.999989"
         id="rect4564-8"
         style="fill:url(#linearGradient4566);fill-opacity:1;stroke:none" />
    </clipPath>
    <clipPath
       clipPathUnits="userSpaceOnUse"
       id="clipPath4544-1">
      <rect
         ry="15.999986"
         y="507.798"
         x="392.57144"
         height="31.999971"
         width="31.999989"
         id="rect4546-1"
         style="fill:url(#linearGradient4548);fill-opacity:1;stroke:none" />
    </clipPath>
    <linearGradient
       id="linearGradient4232">
      <stop
         style="stop-color:#3889e9;stop-opacity:1"
         offset="0"
         id="stop4234-0" />
      <stop
         style="stop-color:#5ea5fb;stop-opacity:1"
         offset="1"
         id="stop4236" />
    </linearGradient>
    <filter
       id="filter7554"
       style="color-interpolation-filters:sRGB">
      <feBlend
         id="feBlend7556"
         in2="BackgroundImage"
         mode="darken" />
    </filter>
    <linearGradient
       id="linearGradient3257">
      <stop
         offset="0"
         style="stop-color:#a50000;stop-opacity:1"
         id="stop3259" />
      <stop
         offset="1"
         style="stop-color:#e73800;stop-opacity:1"
         id="stop3261" />
    </linearGradient>
    <clipPath
       clipPathUnits="userSpaceOnUse"
       id="clipPath4210">
      <rect
         y="1024.3622"
         x="-7"
         height="34"
         width="34"
         id="rect4212"
         style="opacity:1;fill:#0000ff;fill-opacity:0.51376145;stroke:none;stroke-opacity:1" />
    </clipPath>
    <clipPath
       clipPathUnits="userSpaceOnUse"
       id="clipPath4160">
      <rect
         style="opacity:1;fill:#aade87;fill-opacity:0.47247709;stroke:none;stroke-opacity:1"
         id="rect4162"
         width="32"
         height="32.000015"
         x="-6"
         y="1028.3619" />
    </clipPath>
  </defs>
  <path
     id="path4331"
     d="M 8.0631464,5.26411 6.9218842,4.12004 C 5.0086368,5.576126 3.7431234,7.840499 3.6237528,10.399438 l 1.6005615,0 C 5.3436849,8.280945 6.4325988,6.423523 8.0631464,5.26411 Z m 10.7125386,5.135328 1.600562,0 C 20.256876,7.840499 18.991363,5.576126 17.071831,4.12004 l -1.144038,1.14407 c 1.639608,1.159413 2.728522,3.016835 2.847892,5.135328 z m -1.575456,0.401369 c 0,-2.456316 -1.703184,-4.5127 -4.001052,-5.055769 l 0,-0.545143 C 13.199177,4.536785 12.664498,4 11.999984,4 11.335471,4 10.800791,4.536785 10.800791,5.199895 l 0,0.545143 C 8.5029227,6.288107 6.7997383,8.34516 6.7997383,10.800807 l 0,4.399615 -1.5998596,1.598456 0,0.799929 13.6002103,0 0,-0.799929 -1.59986,-1.598456 c 0,0 0,-4.399615 0,-4.399615 z M 11.999984,20 c 0.112384,0 0.215677,-0.007 0.321076,-0.03213 0.517932,-0.103293 0.951392,-0.463479 1.150321,-0.945108 0.08026,-0.18987 0.129133,-0.398562 0.129133,-0.62333 l -3.201092,0 c 0,0.880222 0.720371,1.600561 1.600562,1.600561 z"
     inkscape:connector-curvature="0"
     style="fill:#f2f2f2;fill-opacity:1" />
  <g
     id="g3-9"
     transform="matrix(0.01149582,0,0,0.01149582,-79.189901,48.925017)"
     style="fill:#ffffff;fill-opacity:1">
    <g
       id="g5-4"
       style="fill:#ffffff;fill-opacity:1" />
  </g>
  <g
     style="font-style:normal;font-weight:normal;font-size:11.59667683px;line-height:125%;font-family:sans-serif;letter-spacing:0px;word-spacing:0px;fill:#ffffff;fill-opacity:1;stroke:none;stroke-width:1px;stroke-linecap:butt;stroke-linejoin:miter;stroke-opacity:1"
     id="text4361"
     transform="matrix(0.70106994,0,0,0.70106994,-74.43557,47.0708)" />
</svg>

<svg width="24" height="24" version="1.0" xmlns="http://www.w3.org/2000/svg">
<path d="m8.0631 5.2641-1.1413-1.1441c-1.9132 1.4561-3.1788 3.7205-3.2981 6.2794h1.6006c0.11937-2.1185 1.2083-3.9759 2.8388-5.1353zm10.713 5.1353h1.6006c-0.11937-2.5589-1.3849-4.8233-3.3044-6.2794l-1.144 1.1441c1.6396 1.1594 2.7285 3.0168 2.8479 5.1353zm-1.5755 0.40137c0-2.4563-1.7032-4.5127-4.0011-5.0558v-0.54514c0-0.66311-0.53468-1.1999-1.1992-1.1999-0.66451 0-1.1992 0.53678-1.1992 1.1999v0.54514c-2.2979 0.54307-4.0011 2.6001-4.0011 5.0558v4.3996l-1.5999 1.5985v0.79993h13.6v-0.79993l-1.5999-1.5985v-4.3996zm-5.2002 9.1992c0.11238 0 0.21568-7e-3 0.32108-0.03213 0.51793-0.10329 0.95139-0.46348 1.1503-0.94511 0.08026-0.18987 0.12913-0.39856 0.12913-0.62333h-3.2011c0 0.88022 0.72037 1.6006 1.6006 1.6006z" fill="#f2f2f2"/>
<g transform="matrix(.011496 0 0 .011496 -79.19 48.925)" fill="#fff"></g>
</svg>
